X: 2
T:I Serve a worthie ladie
M:4/4
L:1/4
S:Skene manuscript, c. 1630
S:pete stewart  tradtunes 2005-6-25
K:G
g|eged|cgce|de/d/ e/e/d/c/|AeAc/d/| e/d/c/A/ c/A/G/E/|G/E/D/C/A,c|de g/e/d/c/|A2e||
